X: 1221
T: An Dro
R: polka
M: 2/4
K: Bminor
|:Bd/c/ Bf|dB ff|ed/c/ Bf|dB f2|
ed/c/ Bf|dB ff|ed/c/ Bf|dB f2:|
|:Bc/d/ cf|ec/d/ ed|Bd/c/ Bf/e/|d/B/c/A/ B2|
Bc/d/ cf|ec/d/ ed|Bd/c/ Bf/e/|d/B/c/A/ B2:|

